X: 185
T: Wallace
C: J. Scott Skinner
Z: 2004 John Chambers <jc@trillian.mit.edu>
N:
N: Skinner described this tune as a 'Patriotic Pastoral'. He intended
N: it to be followed by the reel Dumbarton Castle. The two tunes then
N: connect as 'revenge' for 'the death of Lady Wallace'.
%
% Original image \251 University of Aberdeen:
% http://www.abdn.ac.uk/scottskinner/display.php?ID=JSS0011&Creator=1&Creator_Manuscript=5
%
M: C
Q: "Grave"
P: Patriotic Pastoral
L: 1/16
%%slurgraces 1
K: A
(kA,4 {B,2A,2G,2}A,2)>.C2 !_cresc!E2.F.G [A2A2].c.B |\
[A2A2]G2 .F2.E2 [A2A2]>B2 {A2B2}kc4 |\
(kC4 {D2C2B,2} C2)D2 !_cresc!E2FG [A2E2][e2A2] |
.M[d2F2].M[c2E2].M[B2D2].M[A2C2] ([GB,]AGF E).MD.MC.MB, |\
(kA,4 {B,2A,2G,2}A,2)>.C2 E2FG [A2A2]cB |\
.[A2A2].G2 .[F2D2].[E2C2]
[A2A2]>B2 {A2B2}kc2.e2 |\
[f2A2D2][D2A,2][D2A,2] .f2 .e2[E2C2][E2C2][A2E2] |\
(Bd) (ce) (dc) (BA) [c4E4-] {d2c2}[B2E2] |["Fine" [AC]H[A16C16]
"softly"e2 |\
(ag).f.e {g}.a2.[A2E2] .[e2A2].[A2E2].[c2E2].[A2E2] |\
{DCB,}A,3.C [E2C2]FG [A2D2][B2E2][c2A2][e2A2] |\
(ag).f.e {g}.a2.[A2E2] .[e2A2].[A2E2].[c2E2].[A2E2] |
{DA}f2[e2A2][d2E2][c2E2] k[c4E4] {dc}[B2E2] e2 |\
(ag).f.e {g}.a2.[A2E2] .[e2A2].[A2E2].[c2E2].[A2E2] |\
{DCB,}A,3.B, [E2C2]FG [A2D2][B2E2][c2A2][e2A2] |
{DA}(kfefg "^cresc"agfe) (kdcde fedc) |\
((B>c)(A>B) (G>A)(F>G) (E>F)(D>E) (C>D) (B,>C)) ||

%%sep 1 1 500

